X:1
T: Eastwell Park
N:
C:
S:
A:
O:
R:
M:6/8
K:A
I:speed 150
%W: A1
% voice 1 (1 lines, 43 notes)
K:A
M:6/8
L:1/16
A2 |c4 B2 c2 B2 A2 a4 g2 a2 g2 f2 e2 c2 A2 f2 d2 f2 a2 g2 f2 e2 c2 A2 |c4 B2 c2 B2 A2 f2 g2 a2 a2 g2 f2 g2 f2 e2 B2 e2 ^d2 e6e4 A2 |
%W: A2
% voice 1 (1 lines, 42 notes)
c4 B2 c2 B2 A2 a4 g2 a2 g2 f2 e2 c2 A2 f2 d2 f2 a2 g2 f2 e2 c2 A2 |c4 B2 c2 B2 A2 f2 g2 a2 a2 g2 f2 g2 f2 e2 B2 e2 ^d2 e6e4 B2 |
%W: B1
% voice 1 (1 lines, 43 notes)
G4 F2 G2 F2 E2 B2 c2 d2 d2 c2 B2 c4 B2 c2 B2 A2 e2 f2 =g2 g2 f2 e2 |f2 d2 f2 e2 c2 A2 G2 A2 B2 B2 c2 d2 c2 B2 A2 E2 A2 G2 A6A4 B2 |
%W: B2
% voice 1 (1 lines, 42 notes)
G4 F2 G2 F2 E2 B2 c2 d2 d2 c2 B2 c4 B2 c2 B2 A2 e2 f2 =g2 g2 f2 e2 |f2 d2 f2 e2 c2 A2 G2 A2 B2 B2 c2 d2 c2 B2 A2 E2 A2 G2 A6A4 ||
